PortableApps/LibreOfficePortable/App/libreoffice/help/media/icon-themes/cmd/lc_insertrowsafter.svg

<svg viewBox="0 0 24 24" xmlns="http://www.w3.org/2000/svg"><path d="m3 4v11h13.0625c-.579122.01096-1.131112-.256016-1.541016-.658203l-.001953-.001953-.003906-.003906c-1.051321-1.049098-3.564976-3.561937-4.9160156-4.9179692l.0097656-.0097657c-.409701-.406501-.6369439-.9265644-.6074219-1.5058593.02697-.5291221.2681628-.9939133.5898438-1.3164063.320871-.321679.7830421-.5681971 1.3203121-.5957031.594528-.03045 1.128928.1970769 1.53711.6230468l1.55664 1.5566407-.003906-4.1386719c-.000149-.010644.001952-.0206417.001953-.03125zm13.0625 11h4.9375v-4.171875c-1.247697 1.250692-2.679539 2.688235-3.455078 3.457031-.366228.410935-.9033.703887-1.482422.714844zm1.933594-11c.000003.0106118.002101.0206025.001953.03125l.003906 4.1445312 1.568359-1.5722656c.400685-.4108699.917356-.5857567 1.429688-.5839844v-2.0195312zm-14.996094 14v3h18v-3z" fill="#fff"/><path d="m3 3c-.554 0-1 .446-1 1v11 1h20v-1-5h-.171875c-.254918.255609-.529157.52844-.828125.828125v.171875h-.171875c-.367536.368374-.61888.620388-.998047 1h1.169922v3h-4.9375-.0625v-.005859c-.355381-.005637-.69525-.117665-1-.296875v.302734h-6v-3h3.179688c-.375537-.375559-.626752-.628358-.998047-1h-2.181641v-3h.0078125c.0000031-.0331164-.0075678-.0641326-.0058594-.0976562.0170595-.3346891.1266137-.6388643.28125-.9023438h-.2832031v-3h5.003906c.000035-.3627934.096687-.7000781.269532-1zm14.726562 0c.17322.2998241.269436.637449.269532 1h3.003906v2.0195312c.267257.0009246.532539.0349807.78125.140625.079373.0337153.144791.0896894.21875.1328126v-2.2929688c0-.554-.446-1-1-1zm-14.726562 1h5v3h-5zm0 4h5v3h-5zm0 4h5v3h-5z" fill="#808080"/><g fill="#4d82b8"><path d="m2 22v-5h20v5zm1-1h5v-3h-5zm6 0h6v-3h-6zm7 0h5v-3h-5z"/><path d="m22.000103 8.027501c.0118-.431173-.263693-.800553-.609409-.947402s-.802293-.08821-1.103576.220735l-3.283187 3.29173-.0059-6.575165c.0041-.294233-.12096-.580072-.318376-.757921-.197417-.177849-.44202-.255896-.679725-.255896s-.482309.07805-.679726.255896c-.197416.177849-.322496.463688-.318376.757921l.0059 6.571258-3.279789-3.284007c-.204519-.213432-.497094-.330105-.763714-.316451-.26662.01365-.495796.13405-.664099.302777-.168303.168728-.285275.39593-.298845.662206-.01357.266275.101552.558718.31447.763781l-.0078-.0059c1.349362 1.354348 3.864437 3.869061 4.914642 4.917046.5239.514037 1.141229.480336 1.576259-.0078 1.065871-1.055988 3.668076-3.66973 4.900414-4.905246.185168-.181347.293605-.428604.300796-.687562z"/></g></svg>

<svg viewBox="0 0 24 24" xmlns="http://www.w3.org/2000/svg">
  <path
     style="fill:#ffffff"
     d="M 3 4 L 3 15 L 16.0625 15 C 15.483378 15.01096 14.931388 14.743984 14.521484 14.341797 L 14.519531 14.339844 L 14.515625 14.335938 C 13.464304 13.28684 10.950649 10.774001 9.5996094 9.4179688 L 9.609375 9.4082031 C 9.199674 9.0017021 8.9724311 8.4816387 9.0019531 7.9023438 C 9.0289231 7.3732217 9.2701159 6.9084305 9.5917969 6.5859375 C 9.9126679 6.2642585 10.374839 6.0177404 10.912109 5.9902344 C 11.506637 5.9597844 12.041037 6.1873113 12.449219 6.6132812 L 14.005859 8.1699219 L 14.001953 4.03125 C 14.001804 4.020606 14.003905 4.0106083 14.003906 4 L 3 4 z M 16.0625 15 L 21 15 L 21 10.828125 C 19.752303 12.078817 18.320461 13.51636 17.544922 14.285156 C 17.178694 14.696091 16.641622 14.989043 16.0625 15 z M 17.996094 4 C 17.996097 4.0106118 17.998195 4.0206025 17.998047 4.03125 L 18.001953 8.1757812 L 19.570312 6.6035156 C 19.970997 6.1926457 20.487668 6.0177589 21 6.0195312 L 21 4 L 17.996094 4 z M 3 18 L 3 21 L 21 21 L 21 18 L 3 18 z "
     />
  <path
     style="fill:#808080"
     d="M 3 3 C 2.446 3 2 3.446 2 4 L 2 15 L 2 16 L 22 16 L 22 15 L 22 10 L 21.828125 10 C 21.573207 10.255609 21.298968 10.52844 21 10.828125 L 21 11 L 20.828125 11 C 20.460589 11.368374 20.209245 11.620388 19.830078 12 L 21 12 L 21 15 L 16.0625 15 L 16 15 L 16 14.994141 C 15.644619 14.988504 15.30475 14.876476 15 14.697266 L 15 15 L 9 15 L 9 12 L 12.179688 12 C 11.804151 11.624441 11.552936 11.371642 11.181641 11 L 9 11 L 9 8 L 9.0078125 8 C 9.0078156 7.9668836 9.0002447 7.9358674 9.0019531 7.9023438 C 9.0190126 7.5676547 9.1285668 7.2634795 9.2832031 7 L 9 7 L 9 4 L 14.003906 4 C 14.003941 3.6372066 14.100593 3.2999219 14.273438 3 L 3 3 z M 17.726562 3 C 17.899782 3.2998241 17.995998 3.637449 17.996094 4 L 21 4 L 21 6.0195312 C 21.267257 6.0204558 21.532539 6.0545119 21.78125 6.1601562 C 21.860623 6.1938715 21.926041 6.2498456 22 6.2929688 L 22 4 C 22 3.446 21.554 3 21 3 L 17.726562 3 z M 3 4 L 8 4 L 8 7 L 3 7 L 3 4 z M 3 8 L 8 8 L 8 11 L 3 11 L 3 8 z M 3 12 L 8 12 L 8 15 L 3 15 L 3 12 z "
     />
  <path
     style="fill:#4d82b8"
     d="m 2,22 v -5 h 20 v 5 z M 3,21 H 8 V 18 H 3 Z m 6,0 h 6 V 18 H 9 Z m 7,0 h 5 v -3 h -5 z"
     />
  <path
     style="fill:#4d82b8"
     d="M 22.000103,8.027501 C 22.011903,7.596328 21.73641,7.226948 21.390694,7.080099 21.044978,6.93325 20.588401,6.991889 20.287118,7.300834 l -3.283187,3.29173 -0.0059,-6.575165 c 0.0041,-0.294233 -0.12096,-0.580072 -0.318376,-0.757921 -0.197417,-0.177849 -0.44202,-0.255896 -0.679725,-0.255896 -0.237705,0 -0.482309,0.07805 -0.679726,0.255896 -0.197416,0.177849 -0.322496,0.463688 -0.318376,0.757921 l 0.0059,6.571258 L 11.727939,7.30465 C 11.52342,7.091218 11.230845,6.974545 10.964225,6.988199 c -0.26662,0.01365 -0.495796,0.13405 -0.664099,0.302777 -0.168303,0.168728 -0.285275,0.39593 -0.298845,0.662206 -0.01357,0.266275 0.101552,0.558718 0.31447,0.763781 l -0.0078,-0.0059 c 1.349362,1.354348 3.864437,3.869061 4.914642,4.917046 0.5239,0.514037 1.141229,0.480336 1.576259,-0.0078 1.065871,-1.055988 3.668076,-3.66973 4.900414,-4.905246 0.185168,-0.181347 0.293605,-0.428604 0.300796,-0.687562 z"
     />
</svg>
